X: 22
T:Sweeney's Dream
R:reel
Z:id:hn-reel-596
M:C|
K:D
dF~F2 ABdf|gfeg fdBc|dF~F2 ABdB|AFDF EFD2:|
faaf afdf|gfed cdeg|fa~a2 baaf|afeg fdde|
fa~a2 baaf|afeg ~f3e|dF~F2 ABdf|g2eg fdec||
